assets/svgs/virtual-reality-color/VirtualRealityColor12.svg

<svg xmlns="http://www.w3.org/2000/svg" data-name="Layer 3" viewBox="0 0 128 128"><path fill="#c5f3ff" d="M73.3 49.21H57.055a11.773 11.773 0 00-19.382 0H20.025v13.383h17.648a11.771 11.771 0 0019.384 0h15.532z"/><circle cx="47.364" cy="55.902" r="5.533" fill="#50b8c9"/><path fill="#50b8c9" d="M93.829 33.674a14.15 14.15 0 00-13.873 11.389 7.363 7.363 0 00-3.4-.86 7.445 7.445 0 00-7.444 7.447v8.5a7.445 7.445 0 007.44 7.45 7.362 7.362 0 003.4-.86 14.145 14.145 0 0028.019-2.757v-16.16a14.149 14.149 0 00-14.142-14.149z"/><path fill="#000a3a" d="M109.519 63.984V47.823a15.676 15.676 0 00-20.565-14.912C85.189 28.76 74.142 19.278 53.837 22.2a42.826 42.826 0 00-7.479 1.754 36.859 36.859 0 00-6.446 2.859 35.494 35.494 0 00-16.455 20.853h-3.432a1.543 1.543 0 00-1.544 1.544v13.383a1.543 1.543 0 001.544 1.544h3.225c.85 5.553 5.85 11.729 7.329 13.451V102.3a1.544 1.544 0 103.089 0V77.008a1.553 1.553 0 00-.4-1.038c-1.754-1.934-5.994-7.42-6.888-11.833h10.515a13.311 13.311 0 0020.94 0h10.672a8.991 8.991 0 008.045 5.007 8.581 8.581 0 002.35-.329 15.727 15.727 0 0013.325 10.767l1.458 3.024h-4.362a1.544 1.544 0 000 3.089h3.829l-4.443 6.248a1.543 1.543 0 00-.268 1.116c.246 1.7.446 6.6-1.553 8.913a3.846 3.846 0 01-3.1 1.29c-.938 0-22.972-.189-22.972-16.6a1.544 1.544 0 10-3.089 0c0 15.542 16.381 19.69 26.06 19.69a6.855 6.855 0 005.432-2.357c2.791-3.227 2.529-8.848 2.346-10.742l5.835-8.208c.007-.01.008-.023.015-.033s.024-.026.034-.041a1.522 1.522 0 00.181-.441c.01-.04.015-.078.022-.118a1.522 1.522 0 00.011-.467v-.067a1.54 1.54 0 00-.126-.4l-1.892-3.918a15.706 15.706 0 0013.874-15.576zm-3.089-16.161v16.161a12.523 12.523 0 01-2.627 7.672V40.149a12.529 12.529 0 012.628 7.674zm-65-18.322a33.7 33.7 0 015.9-2.618 39.671 39.671 0 016.939-1.624c17.749-2.562 27.739 4.957 31.7 9a15.709 15.709 0 00-7.069 8.729 8.589 8.589 0 00-2.35-.329 8.991 8.991 0 00-8.045 5.007H57.833a13.314 13.314 0 00-20.939 0h-10.2A32.715 32.715 0 0141.434 29.5zm15.627 31.548a1.545 1.545 0 00-1.27.665 10.225 10.225 0 01-16.844 0 1.545 1.545 0 00-1.27-.665h-16.1V50.755h16.1a1.545 1.545 0 001.27-.665 10.228 10.228 0 0116.843 0 1.545 1.545 0 001.27.665h10.553a9.16 9.16 0 00-.045.9v8.5c0 .3.016.6.045.9zm13.6-.9v-8.5a5.908 5.908 0 015.9-5.9 5.627 5.627 0 011.859.365V65.69a5.627 5.627 0 01-1.859.365 5.908 5.908 0 01-5.905-5.902zm10.848 6.4V45.246a12.577 12.577 0 0119.215-7.967v37.246a12.578 12.578 0 01-19.22-7.967z"/><path fill="#000a3a" d="M47.364 49.252a6.651 6.651 0 106.651 6.648 6.657 6.657 0 00-6.651-6.648zm0 10.213a3.562 3.562 0 113.562-3.565 3.566 3.566 0 01-3.562 3.565z"/></svg>

<svg id="Layer_3" data-name="Layer 3" xmlns="http://www.w3.org/2000/svg" viewBox="0 0 128 128"><title>Artboard 108</title><path d="M73.3,49.21H57.055a11.773,11.773,0,0,0-19.382,0H20.025V62.593H37.673a11.771,11.771,0,0,0,19.384,0H72.589Z" style="fill:#c5f3ff"/><circle cx="47.364" cy="55.902" r="5.533" style="fill:#50b8c9"/><path d="M93.829,33.674A14.15,14.15,0,0,0,79.956,45.063a7.363,7.363,0,0,0-3.4-.86,7.445,7.445,0,0,0-7.444,7.447v8.5A7.445,7.445,0,0,0,76.552,67.6a7.362,7.362,0,0,0,3.4-.86,14.145,14.145,0,0,0,28.019-2.757V47.823A14.149,14.149,0,0,0,93.829,33.674Z" style="fill:#50b8c9"/><path d="M109.519,63.984V47.823A15.676,15.676,0,0,0,88.954,32.911C85.189,28.76,74.142,19.278,53.837,22.2a42.826,42.826,0,0,0-7.479,1.754,36.859,36.859,0,0,0-6.446,2.859A35.494,35.494,0,0,0,23.457,47.666H20.025a1.543,1.543,0,0,0-1.544,1.544V62.593a1.543,1.543,0,0,0,1.544,1.544H23.25C24.1,69.69,29.1,75.866,30.579,77.588V102.3a1.544,1.544,0,1,0,3.089,0V77.008a1.553,1.553,0,0,0-.4-1.038c-1.754-1.934-5.994-7.42-6.888-11.833H36.895a13.311,13.311,0,0,0,20.94,0H68.507a8.991,8.991,0,0,0,8.045,5.007,8.581,8.581,0,0,0,2.35-.329A15.727,15.727,0,0,0,92.227,79.582l1.458,3.024H89.323a1.544,1.544,0,0,0,0,3.089h3.829l-4.443,6.248a1.543,1.543,0,0,0-.268,1.116c.246,1.7.446,6.6-1.553,8.913a3.846,3.846,0,0,1-3.1,1.29c-.938,0-22.972-.189-22.972-16.6a1.544,1.544,0,1,0-3.089,0c0,15.542,16.381,19.69,26.06,19.69a6.855,6.855,0,0,0,5.432-2.357c2.791-3.227,2.529-8.848,2.346-10.742L97.4,85.045c.007-.01.008-.023.015-.033s.024-.026.034-.041a1.522,1.522,0,0,0,.181-.441c.01-.04.015-.078.022-.118a1.522,1.522,0,0,0,.011-.467c0-.022,0-.044,0-.067a1.54,1.54,0,0,0-.126-.4L95.645,79.56A15.706,15.706,0,0,0,109.519,63.984Zm-3.089-16.161V63.984a12.523,12.523,0,0,1-2.627,7.672V40.149A12.529,12.529,0,0,1,106.431,47.823Zm-65-18.322a33.7,33.7,0,0,1,5.9-2.618,39.671,39.671,0,0,1,6.939-1.624c17.749-2.562,27.739,4.957,31.7,9A15.709,15.709,0,0,0,78.9,42.988a8.589,8.589,0,0,0-2.35-.329,8.991,8.991,0,0,0-8.045,5.007H57.833a13.314,13.314,0,0,0-20.939,0h-10.2A32.715,32.715,0,0,1,41.434,29.5ZM57.057,61.049a1.545,1.545,0,0,0-1.27.665,10.225,10.225,0,0,1-16.844,0,1.545,1.545,0,0,0-1.27-.665h-16.1V50.755h16.1a1.545,1.545,0,0,0,1.27-.665,10.228,10.228,0,0,1,16.843,0,1.545,1.545,0,0,0,1.27.665H67.609c-.029.295-.045.593-.045.9v8.5c0,.3.016.6.045.9Zm13.6-.9v-8.5a5.908,5.908,0,0,1,5.9-5.9,5.627,5.627,0,0,1,1.859.365V65.69a5.627,5.627,0,0,1-1.859.365A5.908,5.908,0,0,1,70.652,60.153Zm10.848,6.4V45.246a12.577,12.577,0,0,1,19.215-7.967V74.525A12.578,12.578,0,0,1,81.5,66.558Z" style="fill:#000a3a"/><path d="M47.364,49.252A6.651,6.651,0,1,0,54.015,55.9,6.657,6.657,0,0,0,47.364,49.252Zm0,10.213A3.562,3.562,0,1,1,50.926,55.9,3.566,3.566,0,0,1,47.364,59.465Z" style="fill:#000a3a"/></svg>
